src/icons/svg/collapse.svg

<?xml version="1.0" encoding="UTF-8"?>
<svg width="40px" height="40px" viewBox="0 0 40 40" version="1.1" xmlns="http://www.w3.org/2000/svg"
>
    <path d="M17.0575,19.5575 C17.1750521,19.6747553 17.2411172,19.8339659 17.2411172,20 C17.2411172,20.1660341 17.1750521,20.3252447 17.0575,20.4425 L11.0675,26.4325 C10.8887323,26.6117211 10.6195132,26.6654127 10.3856709,26.5684804 C10.1518286,26.4715481 9.9995471,26.2431361 9.99999899,25.99 L9.99999899,14.01 C9.9995471,13.7568639 10.1518286,13.5284519 10.3856709,13.4315196 C10.6195132,13.3345873 10.8887323,13.3882789 11.0675,13.5675 L17.0575,19.5575 Z"
          id="路径"></path>
    <path d="M4.375,0 L35.625,0 C38.04,0 40,1.96 40,4.375 L40,35.625 C40,38.0412458 38.0412458,40 35.625,40 L4.375,40 C1.95875422,40 0,38.0412458 0,35.625 L0,4.375 C0,1.96 1.96,0 4.375,0 Z M3.75,4.375 L3.75,35.625 C3.75,35.97 4.03,36.25 4.375,36.25 L23.75,36.25 L23.75,3.75 L4.375,3.75 C4.02982203,3.75 3.75,4.02982203 3.75,4.375 Z M27.5,36.25 L35.625,36.25 C35.970178,36.25 36.25,35.970178 36.25,35.625 L36.25,4.375 C36.25,4.02982203 35.970178,3.75 35.625,3.75 L27.5,3.75 L27.5,36.25 Z"
          id="形状"></path>
</svg>

<svg width="40" height="40" xmlns="http://www.w3.org/2000/svg"><path d="M17.058 19.558a.625.625 0 0 1 0 .884l-5.99 5.99A.625.625 0 0 1 10 25.99V14.01a.625.625 0 0 1 1.068-.442l5.99 5.99z"/><path d="M4.375 0h31.25A4.377 4.377 0 0 1 40 4.375v31.25A4.375 4.375 0 0 1 35.625 40H4.375A4.375 4.375 0 0 1 0 35.625V4.375A4.377 4.377 0 0 1 4.375 0zM3.75 4.375v31.25c0 .345.28.625.625.625H23.75V3.75H4.375a.625.625 0 0 0-.625.625zM27.5 36.25h8.125c.345 0 .625-.28.625-.625V4.375a.625.625 0 0 0-.625-.625H27.5v32.5z"/></svg>
